public/static/lp/maker.svg

<svg width="326" height="65" viewBox="0 0 326 65" fill="none" xmlns="http://www.w3.org/2000/svg">
<path d="M68.65 0.340393C64.9956 0.342609 61.3949 1.22093 58.1499 2.90171C54.9049 4.58249 52.1102 7.01675 50 10.0004C46.4 3.92039 40.14 0.340393 32.43 0.340393C28.9576 0.368405 25.5361 1.1786 22.4198 2.71076C19.3035 4.24293 16.5726 6.45766 14.43 9.19039L11.43 1.68039H0V62.2104H16.32V29.4804C16.32 20.0604 20.69 14.6804 28.06 14.6804C33.88 14.6804 37.06 18.9404 37.06 27.0104V62.2104H52.89V29.4804C52.89 20.0604 57.25 14.6804 64.52 14.6804C70.44 14.6804 73.52 18.9404 73.52 27.0104V62.2104H89.9V24.3204C89.9 10.0904 81.18 0.340393 68.65 0.340393Z" fill="#979AAD"/>
<path d="M146.85 1.6804L145.25 7.4004C140.087 2.60853 133.294 -0.0374474 126.25 0.000400494C109 0.000400494 96.06 13.6704 96.06 31.9404C96.06 50.2104 109 64.0004 126.26 64.0004C133.191 64.0734 139.882 61.4609 144.93 56.7104L146.32 62.2104H159.48V1.6804H146.85ZM127.54 48.5304C118.47 48.5304 111.85 41.3604 111.85 31.9404C111.85 22.5204 118.47 15.3604 127.54 15.3604C136.61 15.3604 143.22 22.4204 143.22 31.9404C143.22 41.4604 136.61 48.5304 127.54 48.5304Z" fill="#979AAD"/>
<path d="M224.39 62.2104L201.69 30.6004L222.15 1.6804H203.37L185.25 28.5804V1.7504H168.93V62.2104H185.25V33.2904L204.6 62.2104H224.39Z" fill="#979AAD"/>
<path d="M282.76 31.8304C282.76 14.3504 270 0.000400494 251.46 0.000400494C233.57 0.000400494 220.15 13.7904 220.15 31.9404C220.15 50.0904 233.68 64.0004 251.46 64.0004C258.128 64.1276 264.657 62.0878 270.067 58.1875C275.476 54.2872 279.474 48.7369 281.46 42.3704H264.36C261.9 46.7404 257.2 49.4304 251.5 49.4304C243.56 49.4304 238.19 44.8304 236.74 36.5404H282.47C282.676 34.979 282.773 33.4052 282.76 31.8304ZM251.46 14.0004C258.84 14.0004 264.09 18.0004 266.46 25.4304H237.15C239.05 18.2704 244.19 14.0004 251.46 14.0004Z" fill="#979AAD"/>
<path d="M320.32 1.3404C312.49 1.3404 307.13 3.8104 302.77 9.1904L299.86 1.6804H289.46V62.2104H305.79V30.8204C305.79 20.9604 309.36 16.8204 318.53 16.8204H325.69V1.3404H320.32Z" fill="#979AAD"/>
</svg>

<svg xmlns="http://www.w3.org/2000/svg" width="326" height="65" fill="none"><path fill="#979AAD" d="M68.65.34A22.86 22.86 0 0 0 50 10C46.4 3.92 40.14.34 32.43.34a23.11 23.11 0 0 0-18 8.85l-3-7.51H0v60.53h16.32V29.48c0-9.42 4.37-14.8 11.74-14.8 5.82 0 9 4.26 9 12.33v35.2h15.83V29.48c0-9.42 4.36-14.8 11.63-14.8 5.92 0 9 4.26 9 12.33v35.2H89.9V24.32C89.9 10.09 81.18.34 68.65.34ZM146.85 1.68l-1.6 5.72a27.71 27.71 0 0 0-19-7.4C109 0 96.06 13.67 96.06 31.94 96.06 50.21 109 64 126.26 64a26.831 26.831 0 0 0 18.67-7.29l1.39 5.5h13.16V1.68h-12.63Zm-19.31 46.85c-9.07 0-15.69-7.17-15.69-16.59s6.62-16.58 15.69-16.58 15.68 7.06 15.68 16.58-6.61 16.59-15.68 16.59ZM224.39 62.21l-22.7-31.61 20.46-28.92h-18.78l-18.12 26.9V1.75h-16.32v60.46h16.32V33.29l19.35 28.92h19.79Z"/><path fill="#979AAD" d="M282.76 31.83C282.76 14.35 270 0 251.46 0c-17.89 0-31.31 13.79-31.31 31.94 0 18.15 13.53 32.06 31.31 32.06a30.812 30.812 0 0 0 30-21.63h-17.1c-2.46 4.37-7.16 7.06-12.86 7.06-7.94 0-13.31-4.6-14.76-12.89h45.73c.206-1.561.303-3.135.29-4.71ZM251.46 14c7.38 0 12.63 4 15 11.43h-29.31c1.9-7.16 7.04-11.43 14.31-11.43ZM320.32 1.34c-7.83 0-13.19 2.47-17.55 7.85l-2.91-7.51h-10.4v60.53h16.33V30.82c0-9.86 3.57-14 12.74-14h7.16V1.34h-5.37Z"/></svg>
